src/actions/22/object-order-raise.svg

<svg viewBox="0 0 22 22" xmlns="http://www.w3.org/2000/svg">
 <defs>
  <style type="text/css">.ColorScheme-Text {
        color:#2e3440;
      }
      .ColorScheme-Highlight {
        color:#88c0d0;
      }</style>
 </defs>
 <path class="ColorScheme-Text" d="m13 3v1h6v-1h-6zm-2 2v1h8v-1h-8zm-8 2v1h16v-1h-16zm3.5 2-0.21875 0.21484-3.2812 3.2305 0.71875 0.70898 2.2812-2.2461v4.1523 3.9395h1v-3.9395-4.1523l2.2812 2.2461 0.71875-0.70898-3.2812-3.2305-0.21875-0.21484zm8.5 0v1h4v-1h-4zm-5 2v1h9v-1h-9zm2 2v1h7v-1h-7zm4 2v1h3v-1h-3zm-6 2v1h9v-1h-9z" fill="currentColor"/>
</svg>

<svg xmlns="http://www.w3.org/2000/svg" viewBox="0 0 22 22">
  <defs id="defs3051">
    <style type="text/css" id="current-color-scheme">
      .ColorScheme-Text {
        color:#2e3440;
      }
      .ColorScheme-Highlight {
        color:#88c0d0;
      }
      </style>
  </defs>
 <path 
     style="fill:currentColor;fill-opacity:1;stroke:none" 
     d="M 13 3 L 13 4 L 19 4 L 19 3 L 13 3 z M 11 5 L 11 6 L 19 6 L 19 5 L 11 5 z M 3 7 L 3 8 L 19 8 L 19 7 L 3 7 z M 6.5 9 L 6.28125 9.2148438 L 3 12.445312 L 3.71875 13.154297 L 6 10.908203 L 6 15.060547 L 6 19 L 7 19 L 7 15.060547 L 7 10.908203 L 9.28125 13.154297 L 10 12.445312 L 6.71875 9.2148438 L 6.5 9 z M 15 9 L 15 10 L 19 10 L 19 9 L 15 9 z M 10 11 L 10 12 L 19 12 L 19 11 L 10 11 z M 12 13 L 12 14 L 19 14 L 19 13 L 12 13 z M 16 15 L 16 16 L 19 16 L 19 15 L 16 15 z M 10 17 L 10 18 L 19 18 L 19 17 L 10 17 z "
     class="ColorScheme-Text"
     />
</svg>
